T: Brenda Stubbert's
M: 4/4
L: 1/8
K: Ador
|:B|"Am"A/A/A (BA) GAAB|"Am"A/A/A (BA) "C"edde|"G"G/G/G (BA) BGGB| "C"c2 (BA) "G"BGGB|
"Am"A/A/A (BA) GAAB|"Am"A/A/A (BA) "C"edda|"G"gedB GABd|"Em"[e/e/][e/e/][ee "G"([de][Be) "Am"eAA:|
|:B|"Am"A/A/A a2 A/A/A g2| "Am"Aage "C"ageg|"G"G/G/G (BA) BGGB| "C"c2 (BA) "G"BGGB|
[1"Am"A/A/A a2 A/A/A g2| "Am"Aage "C"agea| "G"gedB GABd|"Em"[e/e/][e/e/][ee] "G"([ed][eB]) "Am"eAA:|
[2"Am"A/A/A (BA) GAAB|"Am"A/A/A (BA) "C"edda|"G"gedB GABd|"Em"[e/e/][e/e/][ee] "G"([ed][eB] )"Am"eAA|]
